_includes/icons/color-bank-building.svg

<svg fill="#666" height="50" viewBox="0 0 48 48" width="50" xmlns="http://www.w3.org/2000/svg"><path d="m13 17h22v18h-22z" fill="#4caf50"/><g fill="#d7ccc8"><path d="m2 39h44v2h-44z"/><path d="m34 19h5v16h-5z"/><path d="m9 19h5v16h-5z"/><path d="m43 17h-38v-3l19-9 19 9z"/><path d="m6 35h36v2h-36z"/></g><g fill="#bcaaa4"><path d="m32 17h9v2h-9z"/><path d="m7 17h9v2h-9z"/><path d="m4 37h40v2h-40z"/><circle cx="24" cy="12" r="2"/></g><path d="m16 17h16v2h-16z" fill="#43a047"/><path d="m27.116 27.565c-.286-.29-.638-.549-1.054-.778-.416-.231-.947-.476-1.593-.735-.646-.26-1.087-.513-1.325-.762s-.357-.578-.357-.989c0-.443.122-.789.365-1.041s.586-.378 1.029-.378c.448 0 .806.162 1.073.483.268.322.402.987.402 1.636h2.344c0-1.054-.27-2.091-.811-2.752-.529-.649-1.261-1.042-2.189-1.184v-2.065h-2v2.138c-.671.162-1.232.463-1.679.91-.584.584-.875 1.331-.875 2.246 0 .53.085.986.255 1.369.17.384.408.717.713 1.001s.672.533 1.099.753c.427.219.935.44 1.524.661.589.222 1.006.463 1.252.726s.369.614.369 1.057c0 .426-.138.766-.413 1.018-.276.252-.651.376-1.127.376-.573 0-1.012-.171-1.318-.513-.305-.344-.458-1.099-.458-1.742h-2.342c0 1.108.304 2.257.911 2.924.514.565 1.218.921 2.089 1.093v1.983h2v-1.944c.894-.128 1.613-.447 2.141-.974.573-.573.859-1.318.859-2.237 0-.492-.076-.922-.227-1.293-.151-.369-.37-.699-.657-.987z" fill="#e8f5e9"/></svg>

<svg xmlns="http://www.w3.org/2000/svg" viewBox="0 0 48 48" width="50" height="50" fill="#666"><path fill="#4caf50" d="M13 17H35V35H13z"/><path fill="#d7ccc8" d="M2 39H46V41H2z"/><path fill="#d7ccc8" d="M34 19H39V35H34z"/><path fill="#d7ccc8" d="M9 19H14V35H9z"/><path fill="#d7ccc8" d="M43 17L5 17 5 14 24 5 43 14z"/><path fill="#d7ccc8" d="M6 35H42V37H6z"/><path fill="#bcaaa4" d="M32 17H41V19H32z"/><path fill="#bcaaa4" d="M7 17H16V19H7z"/><path fill="#bcaaa4" d="M4 37H44V39H4z"/><circle cx="24" cy="12" r="2" fill="#bcaaa4"/><path fill="#43a047" d="M16 17H32V19H16z"/><path d="M27.116,27.565c-0.286-0.29-0.638-0.549-1.054-0.778c-0.416-0.231-0.947-0.476-1.593-0.735 c-0.646-0.26-1.087-0.513-1.325-0.762c-0.238-0.249-0.357-0.578-0.357-0.989c0-0.443,0.122-0.789,0.365-1.041 c0.243-0.252,0.586-0.378,1.029-0.378c0.448,0,0.806,0.162,1.073,0.483c0.268,0.322,0.402,0.987,0.402,1.636H28 c0-1.054-0.27-2.091-0.811-2.752c-0.529-0.649-1.261-1.042-2.189-1.184V19h-2v2.138c-0.671,0.162-1.232,0.463-1.679,0.91 c-0.584,0.584-0.875,1.331-0.875,2.246c0,0.53,0.085,0.986,0.255,1.369c0.17,0.384,0.408,0.717,0.713,1.001s0.672,0.533,1.099,0.753 c0.427,0.219,0.935,0.44,1.524,0.661c0.589,0.222,1.006,0.463,1.252,0.726c0.246,0.263,0.369,0.614,0.369,1.057 c0,0.426-0.138,0.766-0.413,1.018c-0.276,0.252-0.651,0.376-1.127,0.376c-0.573,0-1.012-0.171-1.318-0.513 c-0.305-0.344-0.458-1.099-0.458-1.742H20c0,1.108,0.304,2.257,0.911,2.924c0.514,0.565,1.218,0.921,2.089,1.093V35h2v-1.944 c0.894-0.128,1.613-0.447,2.141-0.974C27.714,31.509,28,30.764,28,29.845c0-0.492-0.076-0.922-0.227-1.293 C27.622,28.183,27.403,27.853,27.116,27.565z" fill="#e8f5e9"/></svg>
